X:1
T:Title
%%score { 1 | 2 }
L:1/8
M:4/4
K:D
V:1 treble nm="Grand Piano"
V:2 bass 
V:1
 z4 z[Q:1/4=100] A^GA | B2 .A2 z F=F^F | G2 .F2 z E^DE | [CG]2 [CB]2- [CB]dcB |[M:3/4] [DA]6 | %5
[M:3/8] A^GA |[M:4/4] B2 .A2 z F=F^F | G2 .F2 z E^DE | [A,CG]2 [A,CE]2- [A,CE]DC[K:bass]B, | %9
[M:11/16] [A,D]/-[A,D]/-[A,D]/-[A,D]/-[A,D]/-[A,D]/-[A,D]/-[A,D]-<[A,D] |[M:3/8][K:treble] Adc | %11
[M:4/4] [DB]4- [DB]dcB | [DA]4- [DA]cBA | [CG]4- [CG]ABG |[M:5/8] [DF]-[DF]- [DF]3 |[M:3/8] Adc | %16
[M:4/4] [DB]4- [DB]dcB | [DA]4- [DA]cBA | [CG]4- [CG]ABG |[M:5/8] [DF]-[DF]- [DF]3 | %20
[M:3/8] z [G,B,][B,G] |[M:4/4] [B,G]E/D/ C[CA] [CA]A,/A,/ A,F |[M:5/8] ED A3 |[M:3/8] D/C/B,[B,G] | %24
[M:4/4] [B,G]E/D/ C[CA] .[CA]2 z [DF] |[M:3/8] [DF][CE][A,D]- |[M:1/4] [A,D]2 |] %27
V:2
 z8 | [G,B,D]2 .[D,F,D]2 z4 | [G,B,D]2 .[D,A,D]2 z4 | A,,2 G,2- G,[K:treble]BAG | %4
[M:3/4][K:bass] D,2 A,,F,, D,,2 |[M:3/8] z3 |[M:4/4] [G,B,D]2 .[D,F,D]2 z4 | %7
 [G,B,D]2 .[D,A,D]2 z4 | A,,2 A,,2- A,,B,A,G, |[M:11/16] D,-<D,A,,F,,D,,3/2- |[M:3/8] D,,3 | %11
[M:4/4] G,,2 D,E, G,4 | D,,2 A,,D, F,4 | A,,2 C,E, G,A,B,G, |[M:5/8] D,,2 A,,2 F, |[M:3/8] D,,3 | %16
[M:4/4] G,,2 D,E, G,4 | D,,2 A,,D, F,4 | A,,2 C,E, G,A,B,G, |[M:5/8] D,,2 A,,2 F, | %20
[M:3/8] D/C/G,,[G,,G,] |[M:4/4] [G,,G,]2 [A,,A,][A,,A,] .[A,,A,]2 z [D,D] |[M:5/8] z2 D,3 | %23
[M:3/8] z [G,,G,][G,,G,] |[M:4/4] [G,,G,]2 [A,,A,][A,,A,] [A,,A,]A,/A,/ A,D, |[M:3/8] D,A,,D, | %26
[M:1/4] A,,D,, |] %27

